X:7
T:The Cup of Tea
R:reel
M:C
L:1/8
C:Traditional / Key of D
K:D
"Em" BAGF GEEF|GEBE GE E2|BAGF GEEF|"D"FDAG FD D2|
"Em" BAGF GEEF|GEBE GE E2|"G"BAGF GABc|"D"dBAG FD D2:|
"D"d2 (3(efg) "A"fdec |"D"d2 (3(efg) "Bm"fB B2|"D"d2 (3(efg) "A"fdec|"A"dBAG "D"FD D2|
"D"d2 (3(efg) "G"fdec|"D"dfaf "A"g2 fg|"D"afge "G"fdec|"A"dBAG "D"FD D2:|
"D"FAdA FAdA|"D"FAdA "A"FE E2|"D"FAdA "G"BABc|"A"dBAG "D"FD D2|
"D"FAdA FAdA|"D"FAde "A"fe e2|"G"fdec dBAF|"A"GBAG "D"FD D2:|
